polaris-icons/icons/newicons/CustomerMinusMajor.svg

<svg width="20" height="20" viewBox="0 0 20 20" fill="none" xmlns="http://www.w3.org/2000/svg">
<path fill-rule="evenodd" clip-rule="evenodd" d="M6.5 6.5C6.5 4.567 8.067 3 10 3C11.933 3 13.5 4.567 13.5 6.5C13.5 8.433 11.933 10 10 10C8.067 10 6.5 8.433 6.5 6.5ZM10 4.5C8.89543 4.5 8 5.39543 8 6.5C8 7.60457 8.89543 8.5 10 8.5C11.1046 8.5 12 7.60457 12 6.5C12 5.39543 11.1046 4.5 10 4.5Z" fill="black"/>
<path d="M3.62342 13.0958C5.08151 11.7483 6.99392 11 8.97927 11H13.8152C14.2294 11 14.5652 11.3358 14.5652 11.75C14.5652 12.1642 14.2294 12.5 13.8152 12.5H8.97927C7.37129 12.5 5.8224 13.1061 4.64146 14.1974C4.55128 14.2807 4.5 14.3979 4.5 14.5207V14.6848C4.5 15.135 4.86499 15.5 5.31522 15.5H11.25C11.6642 15.5 12 15.8358 12 16.25C12 16.6642 11.6642 17 11.25 17H5.31522C4.03656 17 3 15.9634 3 14.6848V14.5207C3 13.9796 3.22599 13.463 3.62342 13.0958Z" fill="black"/>
<path d="M13.75 13.5C13.3358 13.5 13 13.8358 13 14.25C13 14.6642 13.3358 15 13.75 15H18.25C18.6642 15 19 14.6642 19 14.25C19 13.8358 18.6642 13.5 18.25 13.5H13.75Z" fill="black"/>
</svg>

<svg viewBox="0 0 20 20" fill="none" xmlns="http://www.w3.org/2000/svg"><path fill-rule="evenodd" clip-rule="evenodd" d="M6.5 6.5a3.5 3.5 0 1 1 7 0 3.5 3.5 0 0 1-7 0Zm3.5-2a2 2 0 1 0 0 4 2 2 0 0 0 0-4Z" fill="#5C5F62"/><path d="M3.623 13.096a7.891 7.891 0 0 1 5.356-2.096h4.836a.75.75 0 0 1 0 1.5h-4.836a6.392 6.392 0 0 0-4.338 1.697.44.44 0 0 0-.141.324v.164c0 .45.365.815.815.815h5.935a.75.75 0 0 1 0 1.5h-5.935a2.315 2.315 0 0 1-2.315-2.315v-.164c0-.541.226-1.058.623-1.425Z" fill="#5C5F62"/><path d="M13.75 13.5a.75.75 0 0 0 0 1.5h4.5a.75.75 0 0 0 0-1.5h-4.5Z" fill="#5C5F62"/></svg>
